_src/static/img/sprite/arrow-back-fill.svg

<svg width="30" height="30" viewBox="0 0 30 30" fill="none" xmlns="http://www.w3.org/2000/svg">
<path d="M6.25 13.7501H21.075L16.5375 8.3001C16.3253 8.04483 16.2232 7.71573 16.2537 7.3852C16.2842 7.05466 16.4447 6.74977 16.7 6.5376C16.9553 6.32543 17.2844 6.22335 17.6149 6.25382C17.9454 6.2843 18.2503 6.44483 18.4625 6.7001L24.7125 14.2001C24.7545 14.2598 24.7922 14.3224 24.825 14.3876C24.825 14.4501 24.825 14.4876 24.9125 14.5501C24.9692 14.6934 24.9988 14.846 25 15.0001C24.9988 15.1542 24.9692 15.3068 24.9125 15.4501C24.9125 15.5126 24.9125 15.5501 24.825 15.6126C24.7922 15.6778 24.7545 15.7404 24.7125 15.8001L18.4625 23.3001C18.345 23.4412 18.1978 23.5547 18.0314 23.6325C17.8651 23.7102 17.6836 23.7504 17.5 23.7501C17.2079 23.7507 16.9249 23.649 16.7 23.4626C16.5734 23.3577 16.4688 23.2288 16.3921 23.0834C16.3154 22.9379 16.2682 22.7788 16.2531 22.6151C16.238 22.4513 16.2553 22.2863 16.3041 22.1292C16.3529 21.9722 16.4322 21.8264 16.5375 21.7001L21.075 16.2501H6.25C5.91848 16.2501 5.60054 16.1184 5.36612 15.884C5.13169 15.6496 5 15.3316 5 15.0001C5 14.6686 5.13169 14.3506 5.36612 14.1162C5.60054 13.8818 5.91848 13.7501 6.25 13.7501Z" fill="white"/>
</svg>

<svg width="30" height="30" fill="none" xmlns="http://www.w3.org/2000/svg"><path d="M6.25 13.75h14.825L16.538 8.3a1.251 1.251 0 111.924-1.6l6.25 7.5c.043.06.08.122.113.188 0 .062 0 .1.088.162.056.143.086.296.087.45a1.25 1.25 0 01-.087.45c0 .063 0 .1-.088.163a1.43 1.43 0 01-.113.187l-6.25 7.5a1.25 1.25 0 01-.962.45 1.25 1.25 0 01-.962-2.05l4.537-5.45H6.25a1.25 1.25 0 010-2.5z" fill="#fff"/></svg>
